X: 8758
T: Cucanandy
R: slip jig
M: 9/8
K: Edorian
B3 B2A G2A|B2d d2c d3|B3 B2A G2A|B2 e e2d e3|
B2D B2D G2A|B2d d2c d3|B2D B2D G2A|B2e e2d e3||
e2f g2f g3|B2d d2c d3|e2f g2f g2d|B2e e2d e3|
e2f g2f g3|D2d d2c d3|e2B B2A G2A|B2e e2d e3||

